svgs/thin/circle-5.svg

<svg xmlns="http://www.w3.org/2000/svg" viewBox="0 0 512 512"><!-- Font Awesome Pro 6.0.0-alpha2 by @fontawesome - https://fontawesome.com License - https://fontawesome.com/license (Commercial License) --><path d="M280 240H185.75L204.781 144H328C332.422 144 336 140.406 336 136S332.422 128 328 128H198.219C194.406 128 191.109 130.688 190.375 134.438L168.156 246.438C167.688 248.781 168.297 251.219 169.812 253.062C171.344 254.938 173.609 256 176 256H280C310.875 256 336 281.125 336 312S310.875 368 280 368H213.406C196.219 368 181.031 357.062 175.594 340.75C174.203 336.562 169.672 334.312 165.469 335.688C161.281 337.094 159.016 341.625 160.406 345.812C168.031 368.656 189.328 384 213.406 384H280C319.703 384 352 351.688 352 312S319.703 240 280 240ZM256 16C123.451 16 16 123.451 16 256S123.451 496 256 496S496 388.549 496 256S388.549 16 256 16ZM256 480C132.486 480 32 379.514 32 256S132.486 32 256 32S480 132.486 480 256S379.514 480 256 480Z"/></svg>

<svg xmlns="http://www.w3.org/2000/svg" viewBox="0 0 512 512"><!--! Font Awesome Pro 6.3.0 by @fontawesome - https://fontawesome.com License - https://fontawesome.com/license (Commercial License) Copyright 2023 Fonticons, Inc. --><path d="M280 240H185.8l19.03-96H328c4.422 0 8-3.594 8-8S332.4 128 328 128H198.2C194.4 128 191.1 130.7 190.4 134.4l-22.22 112C167.7 248.8 168.3 251.2 169.8 253.1C171.3 254.9 173.6 256 176 256h104c30.88 0 56 25.12 56 56s-25.12 56-56 56H213.4c-17.19 0-32.38-10.94-37.81-27.25c-1.391-4.188-5.922-6.438-10.12-5.062c-4.188 1.406-6.453 5.938-5.062 10.12C168 368.7 189.3 384 213.4 384H280C319.7 384 352 351.7 352 312S319.7 240 280 240zM256 0C114.6 0 0 114.6 0 256s114.6 256 256 256s256-114.6 256-256S397.4 0 256 0zM256 496c-132.3 0-240-107.7-240-240S123.7 16 256 16s240 107.7 240 240S388.3 496 256 496z"/></svg>
